X: 5
T: The Easy Club
R: reel
M: 4/4
L: 1/8
K: Amaj
|:AEAc BEGB|ccAc eAce|faa<g aaea|caec dcBc|
AEAc BEGB|ccAc eAce|faga efec|1dBGB A3 B:|2dBGB A2 ce||
:faa<d aaga|eaa<c aaga|faa<d aaga|ceec dBGB|
AEcA Bc (3ddd|cAec defg|agae faec|dBGB A4:||


Tune 955	Setting 14155

